assets/img/braze_icons/arrow-narrow-down.svg

<svg fill="none" height="24" viewBox="0 0 24 24" width="24" xmlns="http://www.w3.org/2000/svg"><path d="m13 4c0-.55228-.4477-1-1-1s-1 .44772-1 1v13.5858l-4.29289-4.2929c-.39053-.3905-1.02369-.3905-1.41422 0-.39052.3905-.39052 1.0237 0 1.4142l6.00001 6c.3905.3905 1.0237.3905 1.4142 0l6-6c.3905-.3905.3905-1.0237 0-1.4142s-1.0237-.3905-1.4142 0l-4.2929 4.2929z" fill="#801ed7"/></svg>

<svg width="24" height="24" viewBox="0 0 24 24" fill="none" xmlns="http://www.w3.org/2000/svg">
<path d="M13 4C13 3.44772 12.5523 3 12 3C11.4477 3 11 3.44772 11 4V17.5858L6.70711 13.2929C6.31658 12.9024 5.68342 12.9024 5.29289 13.2929C4.90237 13.6834 4.90237 14.3166 5.29289 14.7071L11.2929 20.7071C11.6834 21.0976 12.3166 21.0976 12.7071 20.7071L18.7071 14.7071C19.0976 14.3166 19.0976 13.6834 18.7071 13.2929C18.3166 12.9024 17.6834 12.9024 17.2929 13.2929L13 17.5858V4Z" fill="#801ED7"/>
</svg>
